src/icons/orientation-coord-system.svg

<svg width="21" height="21" viewBox="0 0 23 22" fill="none" xmlns="http://www.w3.org/2000/svg">
<path d="M21.7099 16.2621L20.6205 16.608L21.2793 18.679L18.3573 17.2179V9.85689L12.0715 6.71409V2.89269L13.3795 4.21073L14.1921 3.40503L11.5179 0.714233L8.81153 3.40223L9.61723 4.21363L10.9286 2.91113V6.71413L4.64295 9.85693V17.2179L1.72915 18.6747L2.38625 16.6083L1.29687 16.2625L0.0714111 20.1429L3.89721 21.2858L4.24307 20.1966L2.40729 19.6134L5.28149 18.1766L11.5001 21.2856L17.7183 18.1764L20.5947 19.6146L18.7635 20.1964L19.1094 21.2856L22.9286 20.1427L21.7099 16.2621ZM11.5001 12.6463L6.55967 10.1763L11.5001 7.70633L16.4409 10.1767L11.5001 12.6463ZM12.0715 13.6388L17.2145 11.0672V17.1504L12.0715 19.722V13.6388ZM5.78567 11.0672L10.9287 13.6388V19.722L5.78567 17.1504V11.0672Z" fill="currentColor"/>
</svg>

<svg xmlns="http://www.w3.org/2000/svg" width="21" height="21" fill="none" viewBox="0 0 23 22"><path fill="currentColor" d="m21.71 16.262-1.09.346.66 2.071-2.923-1.461V9.857l-6.285-3.143V2.893L13.38 4.21l.812-.806-2.674-2.69-2.706 2.687.805.812L10.93 2.91v3.803L4.643 9.857v7.36l-2.914 1.458.657-2.067-1.09-.346-1.225 3.88 3.826 1.144.346-1.09-1.836-.583 2.874-1.436 6.22 3.109 6.217-3.11 2.877 1.439-1.831.581.345 1.09 3.82-1.143zM11.5 12.646l-4.94-2.47 4.94-2.47 4.94 2.47zm.572.993 5.143-2.572v6.083l-5.143 2.572zm-6.286-2.572 5.143 2.572v6.083L5.786 17.15z"/></svg>
